X:1811
T:The Sutters of Selkirk
%
P:The Randy Wives of Greenlaw
C:Koehler's Coll.
R:Reel (8x32)
B:RSCDS 18-11
Z:Anselm Lingnau <anselm@strathspey.org>
M:2/2
L:1/8
K:D
c | "D"d2AG F2Dc | d2fd "Em"eBBc | "D"d2AG F2DF | "A7"GBAG "D"FDD :| 
c | "D"d2df abaf | "A7"ge"D"fd "Em"eBBc | "D"d2df abaf | "A"geaf "D"ddd ||
A | "D"d2df abaf | "A7"ge"D"fd "Em"eBBc | "D"df"A"ce "G"Bd"D"AF | "Em"GB"A7"AF "D"DDD |] 
%
P: Captain Lockhart
C: unknown
R: Reel
Z: Bruce Shawyer
M: 4/4
L: 1/8
K: C
e | cGGF E2DC | Ddde fede | cGGF EcBA | GEFD CCC :|
f | ecge egfe | defg afda | ecgc egfe | fdge ccc ||
g | egcg ecgc | fdad fdad | egde cdAc | GEcE CCC |]
